images/item-about-icon.svg

<svg width="32" height="32" viewBox="0 0 32 32" fill="none" xmlns="http://www.w3.org/2000/svg">
<g id="checked (1) 1" clip-path="url(#clip0_37_77)">
<g id="Group">
<circle id="Ellipse 4" cx="16" cy="16" r="16" fill="white"/>
<path id="Vector" opacity="0.992" fill-rule="evenodd" clip-rule="evenodd" d="M14.5938 -0.03125C15.5104 -0.03125 16.4271 -0.03125 17.3438 -0.03125C23.6104 0.75255 28.0791 4.00255 30.75 9.71875C31.3935 11.2928 31.7997 12.9178 31.9688 14.5938C31.9688 15.5104 31.9688 16.4271 31.9688 17.3438C31.1849 23.6104 27.9349 28.0791 22.2188 30.75C20.6448 31.3935 19.0198 31.7997 17.3438 31.9688C16.4271 31.9688 15.5104 31.9688 14.5938 31.9688C8.32713 31.1849 3.85838 27.9349 1.1875 22.2188C0.543996 20.6448 0.137746 19.0198 -0.03125 17.3438C-0.03125 16.4271 -0.03125 15.5104 -0.03125 14.5938C0.75255 8.32713 4.00255 3.85838 9.71875 1.1875C11.2928 0.543996 12.9178 0.137746 14.5938 -0.03125ZM23.4688 9.03125C24.7598 9.04094 25.3744 9.68681 25.3125 10.9688C25.2463 11.1636 25.163 11.3511 25.0625 11.5312C21.5051 15.1512 17.8905 18.7033 14.2188 22.1875C13.6409 22.4312 13.0992 22.3687 12.5938 22C10.7812 20.3542 8.96875 18.7083 7.15625 17.0625C6.40637 16.2492 6.40637 15.4367 7.15625 14.625C7.83663 14.1536 8.50325 14.1744 9.15625 14.6875C10.5938 16.0104 12.0312 17.3333 13.4688 18.6562C16.5825 15.5737 19.6866 12.48 22.7812 9.375C22.9994 9.22425 23.2286 9.10969 23.4688 9.03125Z" fill="#61AA45"/>
</g>
</g>
<defs>
<clipPath id="clip0_37_77">
<rect width="32" height="32" fill="white"/>
</clipPath>
</defs>
</svg>

<svg xmlns="http://www.w3.org/2000/svg" width="32" height="32" fill="none"><g clip-path="url(#a)"><circle cx="16" cy="16" r="16" fill="#fff"/><path fill="#61AA45" fill-rule="evenodd" d="M14.594-.031h2.75c6.266.784 10.735 4.034 13.406 9.75a17.447 17.447 0 0 1 1.219 4.875v2.75c-.784 6.266-4.034 10.735-9.75 13.406a17.446 17.446 0 0 1-4.875 1.219h-2.75c-6.267-.784-10.736-4.034-13.406-9.75a17.443 17.443 0 0 1-1.22-4.875v-2.75C.754 8.327 4.004 3.858 9.719 1.188a17.443 17.443 0 0 1 4.876-1.22Zm8.875 9.062c1.29.01 1.905.656 1.843 1.938a3.39 3.39 0 0 1-.25.562A435.396 435.396 0 0 1 14.22 22.187c-.578.244-1.12.182-1.625-.187l-5.438-4.938c-.75-.813-.75-1.625 0-2.437.68-.471 1.347-.45 2 .063l4.313 3.968c3.114-3.082 6.218-6.176 9.312-9.281.218-.15.448-.265.688-.344Z" clip-rule="evenodd" opacity=".992"/></g><defs><clipPath id="a"><path fill="#fff" d="M0 0h32v32H0z"/></clipPath></defs></svg>
